X: 7124
T: Christmas Letter, The
R: waltz
M: 3/4
K: Dmajor
L: 1/4
zFE|D2C|DE2|Fd2|zdc|B2c|B2A|FE2|zFE|D2C|DE2|FA2|zdc|B3|A2F|E3|
zFE|D2C|DE2|Fd2|zdc|B2c|B2A|FE2|zFE|D2C|DE2|FA2|A2G|FD2|D2E|D3:|
zdd|d2c|d2e|fd2|zdc|d2c|d2e|fd2|z3|d2e|d2B|Ad2|D2A|B2B|A2F|E3|
zFE|D2C|DE2|FA2|zdc|B2c|B2A|FE2|zFE|D2C|DE2|FA2|A2G|FD2|D2E|D3||

